images/cotacao/trigo.svg

<?xml version="1.0" encoding="UTF-8"?> <!-- Generator: Adobe Illustrator 23.0.0, SVG Export Plug-In . SVG Version: 6.00 Build 0) --> <svg xmlns="http://www.w3.org/2000/svg" xmlns:xlink="http://www.w3.org/1999/xlink" id="Layer_1" x="0px" y="0px" viewBox="0 0 374.3 373.3" style="enable-background:new 0 0 374.3 373.3;" xml:space="preserve"> <g> <path d="M270.5,63.7c2.9,0,5.2-2.3,5.2-5.2s-2.3-5.2-5.2-5.2c-2.9,0-5.2,2.3-5.2,5.2S267.6,63.7,270.5,63.7z"></path> <path d="M187.1,63.7c2.9,0,5.2-2.3,5.2-5.2s-2.3-5.2-5.2-5.2s-5.2,2.3-5.2,5.2S184.3,63.7,187.1,63.7z"></path> <path d="M98.6,58.5c0,2.9,2.3,5.2,5.2,5.2s5.2-2.3,5.2-5.2s-2.3-5.2-5.2-5.2S98.6,55.6,98.6,58.5z"></path> <path d="M72.5,84.5c-2.9,0-5.2,2.3-5.2,5.2v137.1c0,15.7,7.8,30.3,20.9,39l10.4,6.9v42c0,2.9,2.3,5.2,5.2,5.2 c2.9,0,5.2-2.3,5.2-5.2v-42l10.4-6.9c13.1-8.7,20.9-23.3,20.9-39c0-49.3,0-105.3,0-137.1c0-2.9-2.3-5.2-5.2-5.2 c-2.9,0-5.2,2.3-5.2,5.2v31.6L109,135.2V79.3c0-2.9-2.3-5.2-5.2-5.2c-2.9,0-5.2,2.3-5.2,5.2v55.9l-20.8-13.9V89.7 C77.7,86.8,75.4,84.5,72.5,84.5z M109,150.5c0-1.7,0.9-3.4,2.3-4.3l18.5-12.3V163L109,176.9V150.5z M109,192.2 c0-1.7,0.9-3.4,2.3-4.3l0,0c0,0,0,0,0,0l18.5-12.3v29.2L109,218.6V192.2z M109,233.9c0-1.7,0.9-3.4,2.3-4.3l0,0c0,0,0,0,0,0 l18.5-12.3v9.6c0,12.2-6.1,23.6-16.2,30.3l-4.6,3.1V233.9z M98.6,260.3l-4.6-3.1c-10.2-6.8-16.2-18.1-16.2-30.3v-9.6l18.5,12.3 c0,0,0,0,0,0l0,0c1.5,1,2.3,2.6,2.3,4.3V260.3z M98.6,218.6l-20.8-13.9v-29.2l18.5,12.3c0,0,0,0,0,0l0,0c1.5,1,2.3,2.6,2.3,4.3 V218.6z M96.2,146.2c1.5,1,2.3,2.6,2.3,4.3v26.4L77.7,163v-29.2L96.2,146.2z"></path> <path d="M187.1,320c2.9,0,5.2-2.3,5.2-5.2v-42l10.4-6.9c13.1-8.7,20.9-23.3,20.9-39c0-49.3,0-105.3,0-137.1c0-2.9-2.3-5.2-5.2-5.2 s-5.2,2.3-5.2,5.2v31.6l-20.8,13.9V79.3c0-2.9-2.3-5.2-5.2-5.2s-5.2,2.3-5.2,5.2v55.9l-20.8-13.9V89.7c0-2.9-2.3-5.2-5.2-5.2 s-5.2,2.3-5.2,5.2v137.1c0,15.7,7.8,30.3,20.9,39l10.4,6.9v42C181.9,317.7,184.3,320,187.1,320z M192.4,150.5 c0-1.7,0.9-3.4,2.3-4.3l18.5-12.3V163l-20.8,13.9V150.5z M192.4,192.2c0-1.7,0.9-3.4,2.3-4.3l0,0c0,0,0,0,0,0l18.5-12.3v29.2 l-20.8,13.9V192.2z M192.4,233.9c0-1.7,0.9-3.4,2.3-4.3l0,0c0,0,0,0,0,0l18.5-12.3v9.6c0,12.2-6.1,23.6-16.2,30.3l-4.6,3.1V233.9z M161.1,133.9l18.5,12.3c1.5,1,2.3,2.6,2.3,4.3v26.4L161.1,163V133.9z M161.1,175.5l18.5,12.3c0,0,0,0,0,0l0,0 c1.5,1,2.3,2.6,2.3,4.3v26.4l-20.8-13.9V175.5z M177.3,257.2c-10.2-6.8-16.2-18.1-16.2-30.3v-9.6l18.5,12.3c0,0,0,0,0,0l0,0 c1.5,1,2.3,2.6,2.3,4.3v26.4L177.3,257.2z"></path> <path d="M270.5,320c2.9,0,5.2-2.3,5.2-5.2v-42l10.4-6.9c13.1-8.7,20.9-23.3,20.9-39c0-49.3,0-105.3,0-137.1c0-2.9-2.3-5.2-5.2-5.2 c-2.9,0-5.2,2.3-5.2,5.2v31.6l-20.8,13.9V79.3c0-2.9-2.3-5.2-5.2-5.2c-2.9,0-5.2,2.3-5.2,5.2v55.9l-20.8-13.9V89.7 c0-2.9-2.3-5.2-5.2-5.2c-2.9,0-5.2,2.3-5.2,5.2v137.1c0,15.7,7.8,30.3,20.9,39l10.4,6.9v42C265.3,317.7,267.6,320,270.5,320z M275.7,150.5c0-1.7,0.9-3.4,2.3-4.3l18.5-12.3V163l-20.8,13.9V150.5z M275.7,192.2c0-1.7,0.9-3.4,2.3-4.3l0,0c0,0,0,0,0,0 l18.5-12.3v29.2l-20.8,13.9V192.2z M275.7,233.9c0-1.7,0.9-3.4,2.3-4.3l0,0c0,0,0,0,0,0l18.5-12.3v9.6c0,12.2-6.1,23.6-16.2,30.3 l-4.6,3.1V233.9z M244.5,133.9l18.5,12.3c1.5,1,2.3,2.6,2.3,4.3v26.4L244.5,163V133.9z M244.5,175.5l18.5,12.3c0,0,0,0,0,0l0,0 c1.5,1,2.3,2.6,2.3,4.3v26.4l-20.8-13.9V175.5z M260.7,257.2c-10.2-6.8-16.2-18.1-16.2-30.3v-9.6l18.5,12.3c0,0,0,0,0,0l0,0 c1.5,1,2.3,2.6,2.3,4.3v26.4L260.7,257.2z"></path> </g> </svg>

<svg width="375" height="374" viewBox="0 0 375 374" fill="none" xmlns="http://www.w3.org/2000/svg">
<path d="M270.5 63.7C273.4 63.7 275.7 61.4 275.7 58.5C275.7 55.6 273.4 53.3 270.5 53.3C267.6 53.3 265.3 55.6 265.3 58.5C265.3 61.4 267.6 63.7 270.5 63.7Z" fill="black"/>
<path d="M187.1 63.7C190 63.7 192.3 61.4 192.3 58.5C192.3 55.6 190 53.3 187.1 53.3C184.2 53.3 181.9 55.6 181.9 58.5C181.9 61.4 184.3 63.7 187.1 63.7Z" fill="black"/>
<path d="M98.6001 58.5C98.6001 61.4 100.9 63.7 103.8 63.7C106.7 63.7 109 61.4 109 58.5C109 55.6 106.7 53.3 103.8 53.3C100.9 53.3 98.6001 55.6 98.6001 58.5Z" fill="black"/>
<path d="M72.5 84.5C69.6 84.5 67.3 86.8 67.3 89.7V226.8C67.3 242.5 75.1 257.1 88.2 265.8L98.6 272.7V314.7C98.6 317.6 100.9 319.9 103.8 319.9C106.7 319.9 109 317.6 109 314.7V272.7L119.4 265.8C132.5 257.1 140.3 242.5 140.3 226.8C140.3 177.5 140.3 121.5 140.3 89.7C140.3 86.8 138 84.5 135.1 84.5C132.2 84.5 129.9 86.8 129.9 89.7V121.3L109 135.2V79.3C109 76.4 106.7 74.1 103.8 74.1C100.9 74.1 98.6 76.4 98.6 79.3V135.2L77.8 121.3V89.7C77.7 86.8 75.4 84.5 72.5 84.5ZM109 150.5C109 148.8 109.9 147.1 111.3 146.2L129.8 133.9V163L109 176.9V150.5ZM109 192.2C109 190.5 109.9 188.8 111.3 187.9L129.8 175.6V204.8L109 218.6V192.2ZM109 233.9C109 232.2 109.9 230.5 111.3 229.6L129.8 217.3V226.9C129.8 239.1 123.7 250.5 113.6 257.2L109 260.3V233.9V233.9ZM98.6 260.3L94 257.2C83.8 250.4 77.8 239.1 77.8 226.9V217.3L96.3 229.6C97.8 230.6 98.6 232.2 98.6 233.9V260.3ZM98.6 218.6L77.8 204.7V175.5L96.3 187.8C97.8 188.8 98.6 190.4 98.6 192.1V218.6ZM96.2 146.2C97.7 147.2 98.5 148.8 98.5 150.5V176.9L77.7 163V133.8L96.2 146.2Z" fill="black"/>
<path d="M187.1 320C190 320 192.3 317.7 192.3 314.8V272.8L202.7 265.9C215.8 257.2 223.6 242.6 223.6 226.9C223.6 177.6 223.6 121.6 223.6 89.8C223.6 86.9 221.3 84.6 218.4 84.6C215.5 84.6 213.2 86.9 213.2 89.8V121.4L192.4 135.3V79.3C192.4 76.4 190.1 74.1 187.2 74.1C184.3 74.1 182 76.4 182 79.3V135.2L161.2 121.3V89.7C161.2 86.8 158.9 84.5 156 84.5C153.1 84.5 150.8 86.8 150.8 89.7V226.8C150.8 242.5 158.6 257.1 171.7 265.8L182.1 272.7V314.7C181.9 317.7 184.3 320 187.1 320ZM192.4 150.5C192.4 148.8 193.3 147.1 194.7 146.2L213.2 133.9V163L192.4 176.9V150.5ZM192.4 192.2C192.4 190.5 193.3 188.8 194.7 187.9L213.2 175.6V204.8L192.4 218.7V192.2ZM192.4 233.9C192.4 232.2 193.3 230.5 194.7 229.6L213.2 217.3V226.9C213.2 239.1 207.1 250.5 197 257.2L192.4 260.3V233.9V233.9ZM161.1 133.9L179.6 146.2C181.1 147.2 181.9 148.8 181.9 150.5V176.9L161.1 163V133.9ZM161.1 175.5L179.6 187.8C181.1 188.8 181.9 190.4 181.9 192.1V218.5L161.1 204.6V175.5ZM177.3 257.2C167.1 250.4 161.1 239.1 161.1 226.9V217.3L179.6 229.6C181.1 230.6 181.9 232.2 181.9 233.9V260.3L177.3 257.2Z" fill="black"/>
<path d="M270.5 320C273.4 320 275.7 317.7 275.7 314.8V272.8L286.1 265.9C299.2 257.2 307 242.6 307 226.9C307 177.6 307 121.6 307 89.8C307 86.9 304.7 84.6 301.8 84.6C298.9 84.6 296.6 86.9 296.6 89.8V121.4L275.8 135.3V79.3C275.8 76.4 273.5 74.1 270.6 74.1C267.7 74.1 265.4 76.4 265.4 79.3V135.2L244.6 121.3V89.7C244.6 86.8 242.3 84.5 239.4 84.5C236.5 84.5 234.2 86.8 234.2 89.7V226.8C234.2 242.5 242 257.1 255.1 265.8L265.5 272.7V314.7C265.3 317.7 267.6 320 270.5 320ZM275.7 150.5C275.7 148.8 276.6 147.1 278 146.2L296.5 133.9V163L275.7 176.9V150.5ZM275.7 192.2C275.7 190.5 276.6 188.8 278 187.9L296.5 175.6V204.8L275.7 218.7V192.2ZM275.7 233.9C275.7 232.2 276.6 230.5 278 229.6L296.5 217.3V226.9C296.5 239.1 290.4 250.5 280.3 257.2L275.7 260.3V233.9ZM244.5 133.9L263 146.2C264.5 147.2 265.3 148.8 265.3 150.5V176.9L244.5 163V133.9ZM244.5 175.5L263 187.8C264.5 188.8 265.3 190.4 265.3 192.1V218.5L244.5 204.6V175.5ZM260.7 257.2C250.5 250.4 244.5 239.1 244.5 226.9V217.3L263 229.6C264.5 230.6 265.3 232.2 265.3 233.9V260.3L260.7 257.2Z" fill="black"/>
</svg>
